src/images/signs.svg

<svg xmlns="http://www.w3.org/2000/svg" viewBox="0 0 101.31 163.89">
  <defs/>
  <g>
    <g>
      <path d="M98.7 56.8H21.37a1.7 1.7 0 0 1-1.21-.51L10.38 46a1.68 1.68 0 1 1 2.44-2.31l9.28 9.72h75V14.58a1.68 1.68 0 1 1 3.35 0v40.54a1.73 1.73 0 0 1-1.75 1.68zM5 39.67a1.66 1.66 0 0 1-1.2-.5L.46 35.69a1.68 1.68 0 0 1 2.44-2.32l3.35 3.49a1.69 1.69 0 0 1-.06 2.38 2 2 0 0 1-1.19.43zm5.83-12.8a1.71 1.71 0 0 1-1.17-.47 1.65 1.65 0 0 1 0-2.37L20.19 13.4a1.63 1.63 0 0 1 1.21-.5h65.11a1.68 1.68 0 0 1 0 3.35H22L12 26.37a1.56 1.56 0 0 1-1.16.5zM79.71 106.93H2.37a1.66 1.66 0 0 1-1.68-1.68V91.88a1.66 1.66 0 0 1 1.68-1.67A1.65 1.65 0 0 1 4 91.88v11.7h75l18.26-18.27-13.53-14.17a1.68 1.68 0 1 1 2.44-2.31l14.68 15.38a1.68 1.68 0 0 1 0 2.34l-19.97 19.91a1.68 1.68 0 0 1-1.17.47zM2.37 83.54a1.66 1.66 0 0 1-1.68-1.68V64.71A1.66 1.66 0 0 1 2.37 63h77.57a1.68 1.68 0 1 1 0 3.35H4v15.51a1.66 1.66 0 0 1-1.63 1.68z"/>
      <path d="M59.06 163.89h-4.29a1.68 1.68 0 0 1 0-3.35h2.62v-6.37a1.68 1.68 0 0 1 3.35 0v8.05a1.66 1.66 0 0 1-1.68 1.67zm-17.09 0a1.66 1.66 0 0 1-1.67-1.67v-57a1.65 1.65 0 0 1 1.7-1.64h17.1a1.65 1.65 0 0 1 1.67 1.67v39.54a1.68 1.68 0 1 1-3.35 0v-37.86H43.65v55.29a1.68 1.68 0 0 1-1.65 1.67zm17.09-97.51H41.94a1.65 1.65 0 0 1-1.67-1.67v-9.59a1.65 1.65 0 0 1 1.67-1.67h17.12a1.66 1.66 0 0 1 1.68 1.67v9.59a1.66 1.66 0 0 1-1.68 1.67zM43.65 63h13.77v-6.2H43.65zm15.41-46.75H41.94a1.65 1.65 0 0 1-1.67-1.67v-4.23A10.38 10.38 0 0 1 50.62 0a9.89 9.89 0 0 1 7.27 3.05 10.46 10.46 0 0 1 2.85 7.3v4.23a1.66 1.66 0 0 1-1.68 1.67zM43.65 12.9h13.77v-2.55a7.19 7.19 0 0 0-1.91-5 6.56 6.56 0 0 0-4.86-2 7 7 0 0 0-7 7z"/>
    </g>
  </g>
</svg>

<svg xmlns="http://www.w3.org/2000/svg" viewBox="0 0 101.31 163.89"><defs><style>.cls-1{fill:#414042;}</style></defs><title>Asset 3</title><g id="Layer_2" data-name="Layer 2"><g id="Layer_1-2" data-name="Layer 1"><path class="cls-1" d="M98.7,56.8H21.37a1.7,1.7,0,0,1-1.21-.51L10.38,46a1.68,1.68,0,1,1,2.44-2.31l9.28,9.72h75V14.58a1.68,1.68,0,1,1,3.35,0V55.12A1.73,1.73,0,0,1,98.7,56.8ZM5,39.67a1.66,1.66,0,0,1-1.2-.5L.46,35.69A1.68,1.68,0,0,1,2.9,33.37l3.35,3.49a1.69,1.69,0,0,1-.06,2.38A2,2,0,0,1,5,39.67Zm5.83-12.8a1.71,1.71,0,0,1-1.17-.47,1.65,1.65,0,0,1,0-2.37L20.19,13.4a1.63,1.63,0,0,1,1.21-.5H86.51a1.68,1.68,0,0,1,0,3.35H22L12,26.37A1.56,1.56,0,0,1,10.84,26.87Z"/><path class="cls-1" d="M79.71,106.93H2.37a1.66,1.66,0,0,1-1.68-1.68V91.88a1.66,1.66,0,0,1,1.68-1.67A1.65,1.65,0,0,1,4,91.88v11.7H79L97.26,85.31,83.73,71.14a1.68,1.68,0,1,1,2.44-2.31l14.68,15.38a1.68,1.68,0,0,1,0,2.34L80.88,106.46A1.68,1.68,0,0,1,79.71,106.93ZM2.37,83.54A1.66,1.66,0,0,1,.69,81.86V64.71A1.66,1.66,0,0,1,2.37,63H79.94a1.68,1.68,0,1,1,0,3.35H4V81.86A1.66,1.66,0,0,1,2.37,83.54Z"/><path class="cls-1" d="M59.06,163.89H54.77a1.68,1.68,0,0,1,0-3.35h2.62v-6.37a1.68,1.68,0,0,1,3.35,0v8.05A1.66,1.66,0,0,1,59.06,163.89Zm-17.09,0a1.66,1.66,0,0,1-1.67-1.67v-57A1.65,1.65,0,0,1,42,103.58H59.1a1.65,1.65,0,0,1,1.67,1.67v39.54a1.68,1.68,0,1,1-3.35,0V106.93H43.65v55.29A1.68,1.68,0,0,1,42,163.89ZM59.06,66.38H41.94a1.65,1.65,0,0,1-1.67-1.67V55.12a1.65,1.65,0,0,1,1.67-1.67H59.06a1.66,1.66,0,0,1,1.68,1.67v9.59A1.66,1.66,0,0,1,59.06,66.38ZM43.65,63H57.42V56.8H43.65ZM59.06,16.25H41.94a1.65,1.65,0,0,1-1.67-1.67V10.35A10.38,10.38,0,0,1,50.62,0a9.89,9.89,0,0,1,7.27,3.05,10.46,10.46,0,0,1,2.85,7.3v4.23A1.66,1.66,0,0,1,59.06,16.25ZM43.65,12.9H57.42V10.35a7.19,7.19,0,0,0-1.91-5,6.56,6.56,0,0,0-4.86-2,7,7,0,0,0-7,7Z"/></g></g></svg>
